symbolic/16x16/panel/mailspring-tray-full.svg

<svg xmlns="http://www.w3.org/2000/svg" width="16" height="16" version="1.1">
 <defs>
  <style id="current-color-scheme" type="text/css">
   .ColorScheme-Text { color:#323a41; } .ColorScheme-Highlight { color:#4285f4; } .ColorScheme-NeutralText { color:#ff9800; } .ColorScheme-PositiveText { color:#4caf50; } .ColorScheme-NegativeText { color:#f44336; }
  </style>
 </defs>
 <path style="fill:currentColor" class="ColorScheme-Text" d="M 1 3 L 8 10 L 15 3 L 1 3 z M 15 4.5195312 L 10.759766 8.7597656 L 15 13 L 15 4.5195312 z M 1 4.5214844 L 1 13 L 5.2402344 8.7597656 L 1 4.5214844 z M 5.9472656 9.4667969 L 2.4140625 13 L 13.585938 13 L 10.052734 9.4667969 L 9.140625 10.378906 C 8.633925 10.885226 7.3680281 10.885226 6.8613281 10.378906 L 5.9472656 9.4667969 z"/>
</svg>

<svg xmlns="http://www.w3.org/2000/svg" width="16" height="16"><defs><style id="current-color-scheme" type="text/css"></style></defs><path style="fill:currentColor;color:#323a41" d="m1 3 7 7 7-7H1zm14 1.52-4.24 4.24L15 13V4.52zM1 4.52V13l4.24-4.24L1 4.52zm4.947 4.946L2.414 13h11.172l-3.533-3.533-.912.912c-.507.506-1.773.506-2.28 0l-.914-.912z"/></svg>
